!!!COM: Haydn, Franz Joseph
!!!CDT: 1732/03/31-1809/05/31
!!!CNT: Austrian
!!!OTL: Sonata No. 34 in D major
!!!SCT: Hob. XVI:33
!!!OMV: 1
!!!OMD: Allegro.
!!!ODT: ~1777
**kern	**kern	**dynam
*staff2	*staff1	*staff1/2
*>[A,A1,A,A2,B]	*>[A,A1,A,A2,B]	*>[A,A1,A,A2,B]
*>norep[A,A2,B]	*>norep[A,A2,B]	*>norep[A,A2,B]
*>A	*>A	*>A
*clefF4	*clefG2	*clefG2
*k[f#c#]	*k[f#c#]	*k[f#c#]
*D:	*D:	*D:
*M2/4	*M2/4	*M2/4
*MM120	*MM120	*MM120
!	!	!LO:DY:rj
8r	(32ALLL	f
.	32d	.
.	32f#	.
.	32aJJJ	.
=1	=1	=1
4DD 4D	8f#L	.
.	8dJ)	.
8r	8dd`L>	.
*clefG2	*	*
8d` 8f#`	8a`J	.
=2	=2	=2
8d 8gL	(8bTL	.
8d 8f#J	8aJ)	.
4r	8r	.
.	(32ALLL	.
.	32d	.
.	32f#	.
.	32aJJJ	.
*clefF4	*	*
=3	=3	=3
4DD 4D	8f#L	.
.	8dJ)	.
8r	8ff#` 8aa`L	.
8d`	8dd` 8ff#`J	.
=4	=4	=4
(8AL	8ee (8ggL	.
8dJ)	8dd 8ff#J)	.
4r	8r	.
.	(32ddLLL	.
.	32ff#	.
.	32aa	.
.	32dddJJJ	.
=5	=5	=5
8r	4.ccn)	.
8F# 8dL	.	.
8F# 8dJ	.	.
8r	(32cccnLLL	.
.	32aa	.
.	32ff#	.
.	32ccJJJ	.
!!LO:LB:g=z
=6	=6	=6
8r	4.b)	.
8G 8dL	.	.
8G 8dJ	.	.
8r	(32bLLL	.
.	32dd	.
.	32gg	.
.	32bbJJJ	.
=7	=7	=7
4A	8ff#` 8aa`L)	.
.	8dd` 8ff#`J	.
4AA	8ee` 8gg`L	.
.	8cc#X` 8ee`J	.
=8	=8	=8
(4D	4cc#^< (4ee^<	.
8DD)	8dd 8ff#)	.
8r	(32ddLLL	.
.	32ff#	.
.	32aa	.
.	32dddJJJ	.
=9	=9	=9
8r	4.ccn)	.
8F# 8dL	.	.
8F# 8dJ	.	.
8r	(32cccnLLL	.
.	32aa	.
.	32ff#	.
.	32ccJJJ	.
=10	=10	=10
8r	4.b)	.
8G 8dL	.	.
8G 8dJ	.	.
8r	(24bbLL	.
.	24ccc#X	.
.	24dddJJ	.
=11	=11	=11
*	*Xbrackettup	*
!	!LO:TUP:r=8	!
8A	24ccc#LL	.
.	24bb	.
.	24aa	.
8r	24gg	.
.	24ff#	.
.	24eeJJ	.
8AA	24ddLL	.
.	24cc#	.
.	24bJJ	.
8r	32aLLL	.
.	32g	.
.	32f#	.
.	32eJJJ	.
!!LO:LB:g=z
=12	=12	=12
4DD	4d)	.
4r	8r	.
!	!	!LO:DY:rj
.	(>8A	p
=13	=13	=13
2r	(16dLL	.
.	16c#)	.
.	(16e	.
.	16dJJ)	.
.	(16f#LL	.
.	16e)	.
.	(16g	.
.	16f#JJ)	.
=14	=14	=14
8r	(4d^ 4f#^	.
(8G#L	.	.
8AJ)	8c#) 8e)	.
8r	(>8A	.
=15	=15	=15
2r	(16eLL	.
.	16d#)	.
.	(16f#	.
.	16eJJ)	.
.	(16gLL	.
.	16f#)	.
.	(16a	.
.	16gJJ)	.
=16	=16	=16
8r	(4e^ 4g^	.
(8C#L	.	.
8DJ)	)8dn 8f#)	.
8r	(8d	.
=17	=17	=17
2r	(16gLL	<
.	16f#)	.
.	(16a	.
.	16gJJ)	.
.	(16bLL	.
.	16a)	.
.	(16ccn	.
.	16bJJ)	[[
=18	=18	=18
(16GLL	8b`L)	.
16d	.	.
16G	(16bL	mf
16dJJ	16ddJJ	.
16F#LL	8a)	.
16d	.	.
16F#	8r	.
16dJJ	.	.
!!LO:LB:g=z
=19	=19	=19
16BLL	8g`L	.
16d	.	.
16B	(16gL	.
16dJJ	16bJJ	.
16ALL	8f#)	.
16d	.	.
16A	8r	.
16dJJ	.	.
=20	=20	=20
(16GLL)	8b`L	.
16d	.	.
16G	(16bL	.
16dJJ	16ddJJ	.
16F#LL	8a)	.
16d	.	.
16F#	8r	.
16dJJ	.	.
=21	=21	=21
16BLL	8g`L	.
16d	.	.
16B	(16gL	.
16dJJ	16bJJ	.
16ALL	8f#)	.
16d	.	.
16A	8r	.
16dJJ	.	.
=22	=22	=22
4G)	(16d#LL	.
.	16e	<
.	16f#	.
.	16gJJ	.
8r	16aLL	.
.	16b	.
8GG 8G	16g	[
.	16eJJ	.
=23	=23	=23
[2AA (>2F#	2dn	.
.	.	>
=24	=24	=24
8AA] 8E)	8c#)	]]
8r	8r	.
4r	8r	.
.	(<32eLLL	f
.	32a	.
.	32cc#	.
.	32eeJJJ	.
!!LO:LB:g=z
=25	=25	=25
8AA` 8C#` 8E` 8A`	8cc#`)	.
8r	(32aLLL	.
.	32cc#	.
.	32ee	.
.	32aaJJJ	.
8AA` 8C#` 8E` 8A`	8ee`)	.
8r	(32eeLLL	.
.	32aa	.
.	32ccc#	.
.	32eeeJJJ	.
=26	=26	=26
8AA` 8C#` 8E` 8A`	8ccc#`)	.
8r	8r	.
4r	8r	.
.	(32aLLL	mf
.	32e	.
.	32c#	.
.	32AJJJ	.
=27	=27	=27
(16AALL	2G	.
16E	.	.
16D	.	.
16EJJ	.	.
16C#LL	.	.
16E	.	.
16AA	.	.
16C#JJ	.	.
=28	=28	=28
4D/)	(16F#LL)	.
.	16B	.
.	16A#	.
.	16BJJ	.
4r	16c#LL	.
.	16B	.
.	16A#	.
.	16BJJ	.
=29	=29	=29
(16D#LL	2An	.
16F#	.	.
16E	.	.
16F#JJ	.	.
16D#LL	.	.
16F#	.	.
16BB	.	.
16D#JJ	.	.
=30	=30	=30
4E)	16G#LL)	.
.	(16e	.
.	16d#	.
.	16eJJ	.
4r	16f#LL	.
.	16e	.
.	16d#	.
.	16eJJ	.
!!LO:LB:g=z
=31	=31	=31
(16F#LL	8d#L^	.
16cn	.	.
16F#	8aJ)	.
16cJJ	.	.
16F#LL	8r	.
16c	.	.
16F#	(8d#	.
16cJJ	.	.
=32	=32	=32
16G#LL	8e`L)	.
16B	.	.
16G#	(16eL	.
16BJJ	16bJJ	.
16G#LL	8e`L)	.
16B	.	.
16G#	8e`J	.
16BJJ	.	.
=33	=33	=33
(16F#LL)	(8d#^L	.
16cn	.	.
16F#	8aJ)	.
16cJJ	.	.
16F#LL	8r	.
16c	.	.
16F#	(8d#	.
16cJJ	.	.
=34	=34	=34
16G#LL	8e`L)	.
16B	.	.
16G#	(16eL	.
16BJJ	16bJJ	.
16G#LL	8e`L)	.
16B	.	.
16G#	8dn`J	.
16BJJ	.	.
=35	=35	=35
(16ALL)	8c#X`L	.
16c#	.	.
16A	8ee`J	.
16c#JJ	.	.
16ALL	8r	.
16c#	.	.
16A	(<8a	<
16c#JJ	.	.
=36	=36	=36
16BLL	8g#L<`)	.
16d	.	.
16B	(16g#L	.
16dJJ	16eeJJ	.
16BLL	8g#`L)	.
16d	.	.
16B	8g#`J	.
16dJJ	.	.
!!LO:LB:g=z
=37	=37	=37
16c#LL	8a`L	.
16e	.	.
16c#	(16aL	.
16eJJ	16eeJJ	.
16c#LL	8a`L)	.
16e	.	.
16c#	8a`J	.
16eJJ	.	.
=38	=38	=38
16G#LL	8b`L	.
16e	.	.
16G#	(16bL	.
16eJJ	16eeJJ	.
16G#LL	8b`L)	.
16e	.	.
16G#	8dd`J	.
16eJJ	.	.
=39	=39	=39
4A)	16cc#LL	f
.	16dd	.
.	16ee	.
.	16cc#JJ	.
4r	16bLL	.
.	16a	.
.	16g#	.
.	16f#JJ	.
=40	=40	=40
4G# 4B	16eLL	.
.	16d	.
.	16e	.
.	16f#JJ	.
4r	16eLL	.
.	16dn	.
.	16c#	.
.	16BJJ	.
=41	=41	=41
4AA 4A	16c#LL	.
.	16d	.
.	16e	.
.	16c#JJ	.
4rBB	16B<LL	.
.	16A<	.
.	16G#<	.
.	16F#<JJ	.
=42	=42	=42
16ELL	2r	.
16D#	.	.
16E	.	.
16F#JJ	.	.
16ELL	.	.
16Dn	.	.
16C#	.	.
16BBJJ	.	.
!!LO:LB:g=z
=43	=43	=43
4AA	(16cc#LL	.
.	16dd	.
.	16ee	.
.	16cc#JJ	.
4r	16bLL	.
.	16a	.
.	16g#	.
.	16aJJ	.
=44	=44	=44
4d	16ff#LL	.
.	16gg#	.
.	16aa	.
.	16ff#JJ	.
4r	16eeLL	.
.	16dd	.
.	16cc#	.
.	16bJJ	.
=45	=45	=45
4DD	16a#LL	.
.	16b	.
.	16cc#	.
.	16bJJ)	.
4r	(16ddLL	.
.	16cc#)	.
.	(16ee	.
.	16ddJJ)	.
=46	=46	=46
2r	8ff#'	.
.	8r	.
.	(16eeLL	.
.	16dd	.
.	16cc#	.
.	16bJJ	.
=47	=47	=47
*^	*	*
(4.A	8r	4a	.
.	(8C#L	.	.
.	8D	4bT	.
8G#	8EJ	.	.
.	.	16qaLL	.
.	.	16qbJJ	.
*v	*v	*	*
=48	=48	=48
8AA 8A))	(16cc#LL)	.
.	16dd	.
8r	16ee	.
.	16cc#JJ	.
8c#	16bLL	.
.	16a	.
8r	16g#	.
.	16aJJ	.
!!LO:LB:g=z
=49	=49	=49
4d	16ff#LL	.
.	16gg#	.
.	16aa	.
.	16ff#JJ	.
4r	16eeLL	.
.	16dd	.
.	16cc#	.
.	16bJJ	.
=50	=50	=50
4D	16a#LL	.
.	16b	>
.	16cc#	.
.	16bJJ)	.
4r	(16ddLL	.
.	16cc#)	.
.	(16ee	.
.	16ddJJ)	]
=51	=51	=51
2r	8ff#	.
.	8r	.
.	(16ddLL	p
.	16cc#)	.
.	(16ee	.
.	16ddJJ)	.
=52	=52	=52
2r;	8ff#	.
.	8r;	.
*MM60	*MM60	*MM60
!	!LO:TX:a:i:t=adagio	!
.	(16ddLL	pp
.	16cc#	.
.	16ee	.
.	16ddJJ	.
=53	=53	=53
4.r;	4.ff#;)	.
*MM120	*MM120	*MM120
.	(>e#8q	.
!	!LO:TX:a:i:t=allegro	!
8r	8ee#)	f
=54	=54	=54
.	(>f#8q	.
2r	8ff#L)	.
.	(>a#8q	.
.	8aa#J)	.
.	(>b8q	.
.	8bbL)	.
.	(>cc#8q	.
.	8ccc#J)	.
*clefG2	*	*
=55	=55	=55
.	(>dd8q	.
8d 8f# 8bL	8.dddL)	.
8d 8f# 8b	.	.
.	16dddJk	.
8d 8f# 8b	(16dddLL	.
.	16bb)	.
8d 8f# 8bJ	(16ddd	.
.	16bbJJ)	.
!!LO:LB:g=z
=56	=56	=56
8e 8a 8cc#L	(8.eeL	.
8e 8a 8cc#	.	.
.	32aaLL	.
.	32ccc#JJJ	.
8e 8a 8cc#	8.eeeL)	.
8e 8a 8cc#J	.	.
.	(32aaLL	.
.	32bbJJJ	.
=57	=57	=57
.	ccc#32qqP	.
8e 8g# 8bL	2bbpTT	.
8e 8g# 8b	.	.
8e 8g# 8b	.	.
8e 8g# 8bJ	.	.
.	(32qaaLLL	.
.	32qbbJJJ	.
=58	=58	=58
(16ALL	4aa))	.
16a	.	.
16g#	.	.
16aJJ	.	.
16c#LL	8r	.
16a	.	.
16g#	8ee	.
16aJJ	.	.
=59	=59	=59
16dLL	(8ff#TL	.
16a	.	.
16c#	8eeJ)	.
16aJJ	.	.
!	!LO:TR:acc=none	!
16dLL	(8ff#TL	.
16a	.	.
16c#	8eeJ)	.
16aJJ	.	.
=60	=60	=60
4B) 4g#	4ee 4gg# 4bb 4ddd	fz
8r	8r	.
8A 8a	8ccc#	.
=61	=61	=61
8d 8f#	(8bSSsbL	.
8r	8dddJ)	.
*clefF4	*	*
8E 8e	(8eSSseL	.
8r	8ddn 8gg#J	.
*clefG2	*	*
=62	=62	=62
(16ALL	4cc# 4aa)	.
16a	.	.
16g#	.	.
16aJJ	.	.
16c#LL	8r	.
16a	.	.
16g#	8ee	.
16aJJ	.	.
!!LO:LB:g=z
=63	=63	=63
16dLL	(8ff#TL	.
16a	.	.
16c#	8eeJ)	.
16aJJ	.	.
!	!LO:TR:acc=none	!
16dLL	(8ff#TL	.
16a	.	.
16c#	8eeJ)	.
16aJJ	.	.
=64	=64	=64
4B) 4g#	4ee 4gg# 4bb 4ddd	fz
8r	8r	.
8A 8a	8ccc#	.
=65	=65	=65
8d 8f#	(8bbSSsL	.
8r	8dddJ)	.
*clefF4	*	*
8E 8e	(8eeSSsL	.
8r	8ddn 8gg#J	.
=66	=66	=66
8AA 8A	8cc# 8aa)	.
8r	8r	.
8E 8d	16r	p
.	(16eLL	.
8r	16g#	.
.	16eeJJ)	.
=67	=67	=67
8E 8c#	16r	.
.	(16eLL	.
8r	16a	.
.	16eeJJ)	.
8E 8B	16r	.
.	(16BLL	.
8r	16d	.
.	16g#JJ	.
=68	=68	=68
*>A1	*>A1	*>A1
4AA 4A	4c#) 4a	.
8r	8r	.
=69:|!	=69:|!	=69:|!
*>A2	*>A2	*>A2
4AA 4A	4c# 4a)	.
4r	4r	.
=70	=70	=70
*>B	*>B	*>B
2FFF# 2FF#	2r	p
*	*clefF4	*clefF4
=71	=71	=71
*^	*	*
4rA	[2FF#	4r	.
!	!	!	!LO:DY:b
8rA	.	(8F#SSSL	p
8E	.	8A#J)	.
!!LO:LB:g=z
=72	=72	=72	=72
(8DL	2FF#]	(8BL	.
8BBJ)	.	8dJ)	.
8AA#`L	.	8c#`L	.
8C#`J	.	8e`J	.
*	*	*clefG2	*clefG2
=73	=73	=73	=73
4BB	4BB	(8dL	.
.	.	8f#J)	.
4r	4ryy	8r	.
.	.	(32dLLL	.
.	.	32f#	.
.	.	32b	.
.	.	32ddJJJ	.
*v	*v	*	*
=74	=74	=74
4r	8bL	.
.	8f#J)	.
8r	8ff#`L	.
*clefG2	*	*
8d`> 8f#`>	8b`J	.
=75	=75	=75
8d 8gnL	(8cc#tL	.
8d 8f#J	8bJ)	.
4r	8r	.
.	(32dLLL	.
.	32f#	.
.	32b	.
.	32ddJJJ	.
=76	=76	=76
4r	8bL	.
.	8f#J)	.
8r	8bb`L	.
*clefF4	*	*
8D` 8F#`	8ff#`J	.
=77	=77	=77
(8C# 8EL	(8ggnTL	.
8D 8F#J)	8ff#J)	.
4r	8r	.
.	(32bLLL	.
.	32dd	.
.	32ff#	.
.	32bbJJJ	.
=78	=78	=78
4r	8ff#L	.
.	8ddJ)	.
*clefG2	*	*
8b` 8dd`L	8gg`L	.
8a` 8cc#`J	8ff#`J	.
!!LO:LB:g=z
=79	=79	=79
(8g 8bL	(8eeL	.
8f#) 8aJ	8ddJ)	.
4r	4r	.
*clefF4	*	*
=80	=80	=80
[<2D	16r	f
.	(16cnLL	.
.	16B	.
.	16cJJ	.
.	16dLL	.
.	16c	.
.	16e	.
.	16cJJ)	.
=81	=81	=81
*^	*	*
[2B	2D]	16r	.
.	.	(16gLL	.
.	.	16f#	.
.	.	16gJJ	.
.	.	16aLL	.
.	.	16g	.
.	.	16b	.
.	.	16gJJ	.
=82	=82	=82	=82
(16BLL]	2D#	2f#)	.
16A	.	.	.
16G#	.	.	.
16AJJ	.	.	.
16BLL	.	.	.
16A	.	.	.
16cn	.	.	.
16AJJ	.	.	.
=83	=83	=83	=83
4Gn)	2E	(<16BLL	.
.	.	16e	.
.	.	16d#	.
.	.	16eJJ	.
4G	.	16f#LL	.
.	.	16e	.
.	.	16g	.
.	.	16eJJ	.
*v	*v	*	*
=84	=84	=84
16r	2g 2ee)	.
(16c#XLL	.	.
16B	.	.
16c#JJ	.	.
16dLL	.	.
16c#	.	.
16e	.	.
16BJJ	.	.
!!LO:LB:g=z
=85	=85	=85
(<2A# [2f#)	16r	.
.	(16eeLL	.
.	16dd#	.
.	16eeJJ	.
.	16ff#LL	.
.	16ee	.
.	16gg	.
.	16eeJJ	.
=86	=86	=86
4B) 4f#]	()16ddnLL	.
.	16bb	.
.	16aa#	.
.	16bbJJ	.
(<4Gn 4e#	16ccc#LL	.
.	16bb	.
.	16ddd	.
.	16bbJJ	.
=87	=87	=87
4F#) 4f#	16aa#LL	.
.	16ccc#	.
.	16ff#	.
.	16aa#JJ	.
4r	16cc#LL	.
.	16ff#	.
.	16a#	.
.	16cc#JJ	.
=88	=88	=88
4FF#	4f#)	.
4r	8r	.
.	(8f#	p
=89	=89	=89
2r	(16bLL	.
.	16a#)	.
.	(16cc#	.
.	16bJJ)	.
.	(16ddLL	.
.	16cc#)	.
.	(16ee	.
.	16ddJJ)	.
=90	=90	=90
8r	4b 4dd	.
(8E#L	.	.
8F#J)	8a# 8cc#)	.
8r	(8f#	.
=91	=91	=91
2r	(16cc#LL	.
.	16b)	.
.	(16dd	.
.	16cc#JJ)	.
.	(16eeLL	.
.	16dd)	.
.	(16ff#	.
.	16eeJJ)	.
!!LO:LB:g=z
=92	=92	=92
8r	4cc# 4ee	.
(8A#L	.	.
8BJ)	8b 8dd)	.
8r	(8b	.
=93	=93	=93
8r	(16eeLL	.
.	16dd#)	.
8B`	(16ff#	.
.	16eeJJ)	.
8e`L	(16ggLL	.
.	16ff#)	.
8f#`J	(16aa	.
.	16ggJJ)	.
=94	=94	=94
8g	16bbLL	.
.	16aa	.
8r	16gg	.
.	16ff#JJ	.
8E	16eeLL	.
.	16dd	.
8r	16cc#	.
.	16bJJ)	.
=95	=95	=95
8A`L	((16cc#LL	<
.	16b)	.
8B`J	(16dd	.
.	16cc#JJ)	.
8c#`L	(16eeLL	.
.	16dd)	.
8d`J	(16ff#	.
.	16eeJJ)	.
=96	=96	=96
4e	16ggLL	.
.	16ff#	.
.	16ee	.
.	16ddJJ	.
8r	16cc#LL<	.
.	16b	.
8AA`	16a	.
.	16gJJ)	.
=97	=97	=97
8D`L	(>(16f#LL	.
.	16e)	.
8E`J	(16g	.
.	16f#JJ)	.
8F#`L	(16aLL	.
.	16g)	.
8G`J	(16b	.
.	16aJJ)	.
!!LO:LB:g=z
=98	=98	=98
4A	16ccnLL	.
.	16b	.
.	16a	.
.	16gJJ	.
8r	16f#LL	.
.	16e	.
8D	16d	.
.	16cnJJ	.
=99	=99	=99
4G	16BLL)	f)
.	(16b	.
.	16a#	.
.	16bJJ	.
4r	16anLL	.
.	16g	.
.	16f#	.
.	16eJJ	.
=100	=100	=100
4GG	16d#LL	.
.	16e	.
.	16f#	.
.	16eJJ	.
4r	16gLL	.
.	16f#	.
.	16e	.
.	16dnJJ	.
=101	=101	=101
(16AALL	2d	.
16BB	.	.
16C#	.	.
16DJJ	.	.
16ELL	.	.
16F#	.	.
16G	.	.
16F#JJ	.	.
=102	=102	=102
4G)	(16c#LL)	.
.	16A	.
.	16e	.
.	16c#JJ	.
4r	16gLL	.
.	16e	.
.	16cc#	.
.	16gJJ	.
=103	=103	=103
2r	16eeLL	.
.	16cc#	.
.	16gg	.
.	16eeJJ	.
.	8bb`)	.
.	8r	.
!!LO:LB:g=z
=104	=104	=104
2r	4r	.
.	16r	.
.	(16aa#LL	p
.	16bb	.
.	16aa#JJ	.
=105	=105	=105
2r	8bb)	.
.	8r	.
.	16r	.
.	(16aa#LL	.
.	16bb	.
.	16aa#JJ	.
=106	=106	=106
2r	8bb)	.
.	8r	.
.	16r	.
.	(16aa#LL	.
.	16bb	.
.	16aa#JJ	.
=107	=107	=107
2r	16bbLL	<
.	16ccc#	.
.	16ddd	.
.	16ccc#JJ	.
.	16bbLL	.
.	16aan	.
.	16gg	.
.	16ff#JJ	.
*clefG2	*	*
=108	=108	=108
(16bLL	(16ggLL)	.
16cc#	16aa	.
16dd	16bb	.
16cc#JJ	16aaJJ	.
16bLL	16ggLL	.
16a	16ff#	.
16g	16ee	.
16f#JJ	16dd#JJ	.
=109	=109	=109
16gLL	16eeLL	.
16a	16ff#	.
16b	16gg	.
16aJJ	16ff#JJ	.
16gLL	16eeLL	.
16f#	16ddn	.
16e	16cc#	.
16dJJ	16bJJ	.
*clefF4	*	*
!!LO:LB:g=z
=110	=110	=110
4.c#)	16aLL)	f
.	(16b	.
.	16g#	.
.	16bJJ	.
.	16aLL	.
.	16b	.
(8d	16g#	.
.	16bJJ	.
=111	=111	=111
8c#L	16aLL	.
.	16b	.
8dJ	16g#	.
.	16bJJ	.
8c#L	16aLL	.
.	16b	.
8d#J	16f#	.
.	16aJJ	.
=112	=112	=112
*^	*	*
4.e)	[2A	(16gnLL)	.
.	.	16a	.
.	.	16f#	.
.	.	16aJJ	.
.	.	16gLL	.
.	.	16a	.
(8d#	.	16f#	.
.	.	16aJJ	.
=113	=113	=113	=113
8eL	2A_	16gLL	.
.	.	16a	.
8d#J	.	16f#	>
.	.	16aJJ	.
8eL	.	16gLL	.
.	.	16a	.
8d#J	.	16f#	.
.	.	16aJJ	.
=114	=114	=114	=114
8.eL)	2A_	8.gL)	.
(16d#Jk	.	(16f#Jk	.
8.eL	.	8.gL	.
16d#Jk	.	16f#Jk	.
=115	=115	=115	=115
8.eL	2A_	8.gL	.
16d#Jk	.	16f#Jk	.
16eLL	.	16gLL	.
16d#	.	16f#	.
16e	.	16g	.
16d#JJ	.	16f#JJ	.
!!LO:LB:g=z
=116	=116	=116	=116
4e)	4A]	4g)	.
4r	4ryy	4r	.
*v	*v	*	*
=117	=117	=117
8r>	(32A<LLL<	p
.	32c#<	.
.	32e<	.
.	32g<JJJ	.
8r	32aLLL	.
.	32cc#	.
.	32ee	.
.	32ggJJJ)	.
8r;	8r;	.
8r	(32ALLL	f
.	32d	.
.	32f#	.
.	32aJJJ	.
=118	=118	=118
4DD 4D	8f#L	.
.	8dJ)	.
8r	8dd`L>	.
*clefG2	*	*
8d` 8f#`	8a`J	.
=119	=119	=119
(>8d 8gL	(8bTL	.
8d 8f#J)	8aJ)	.
4r	8r	.
.	(32ALLL	.
.	32d	.
.	32f#	.
.	32aJJJ	.
*clefF4	*	*
=120	=120	=120
4DD 4D	8f#L	.
.	8dJ)	.
8r	8ff#` 8aa`L	.
8d`	8dd` 8ff#`J	.
=121	=121	=121
(8AL	8ee (8ggL	.
8dJ)	8dd 8ff#J)	.
4r	8r	.
.	(32ddLLL	.
.	32ff#	.
.	32aa	.
.	32dddJJJ	.
!!LO:LB:g=z
=122	=122	=122
8r	4.ccn)	.
8F# 8dL	.	.
8F# 8dJ	.	.
8r	(32cccnLLL	.
.	32aa	.
.	32ff#	.
.	32ccJJJ	.
=123	=123	=123
8r	4.b)	.
8G 8dL	.	.
8G 8dJ	.	.
8r	(32bLLL	.
.	32dd	.
.	32gg	.
.	32bbJJJ	.
=124	=124	=124
4A	8ff#` 8aa`L)	.
.	8dd` 8ff#`J	.
4AA	8ee` 8gg`L	.
.	8cc#X` 8ee`J	.
=125	=125	=125
(4D	4cc# (4ee	.
8DD)	8dd 8ff#)	.
8r	(32ddLLL	.
.	32ff#	.
.	32aa	.
.	32dddJJJ	.
=126	=126	=126
8r	4.ccn)	.
8F# 8dL	.	.
8F# 8dJ	.	.
8r	(32cccnLLL	.
.	32aa	.
.	32ff#	.
.	32ccJJJ	.
=127	=127	=127
8r	4.b)	.
8G 8dL	.	.
8G 8dJ	.	.
8r	(24bbLL	.
.	24ccc#X	.
.	24dddJJ	.
!!LO:LB:g=z
=128	=128	=128
!	!LO:TUP:r=8	!
8A	24ccc#LL	.
.	24bb	.
.	24aa	.
8r	24gg	.
.	24ff#	.
.	24eeJJ	.
8AA	24ddLL	.
.	24cc#	.
.	24bJJ	.
8r	32aLLL	.
.	32g	.
.	32f#	.
.	32eJJJ	.
=129	=129	=129
4DD	4d)	.
4r	8r	.
!	!	!LO:DY:rj
.	(>8A	p
=130	=130	=130
2r	(16dLL	.
.	16c#)	.
.	(16e	.
.	16dJJ)	.
.	(16f#LL	.
.	16e)	.
.	(16g	.
.	16f#JJ)	.
=131	=131	=131
8r	(4d^ 4f#^	.
(8G#L	.	.
8AJ)	8c#) 8e)	.
8r	(>8A	.
=132	=132	=132
2r	(16eLL	.
.	16d#)	.
.	(16f#	.
.	16eJJ)	.
.	(16gLL	.
.	16f#)	.
.	(16a	.
.	16gJJ)	.
=133	=133	=133
8r	(4e^ 4g^	.
(8A#L	.	.
8BJ)	8dn 8f#))	.
8r	(>8d	.
!!LO:LB:g=z
=134	=134	=134
2r	(16gLL	<
.	16f#)	.
.	(16a	.
.	16gJJ)	.
.	(16bLL	.
.	16a)	.
.	(16ccn	.
.	16bJJ)	[[
=135	=135	=135
(16GLL	8b`L)	mf
16d	.	.
16G	(16bL	.
16dJJ	16ddJJ	.
16F#LL	8a)	.
16d	.	.
16F#	8r	.
16dJJ	.	.
=136	=136	=136
16BLL	8g`L	.
16d	.	.
16B	(16gL	.
16dJJ	16bJJ	.
16ALL	8f#)	.
16d	.	.
16A	8r	.
16dJJ	.	.
=137	=137	=137
(16GLL)	8b`L	.
16d	.	.
16G	(16bL	.
16dJJ	16ddJJ	.
16F#LL	8a)	.
16d	.	.
16F#	8r	.
16dJJ	.	.
=138	=138	=138
16BLL	8g`L	.
16d	.	.
16B	(16gL	.
16dJJ	16bJJ	.
16ALL	8f#)	.
16d	.	.
16A	8r	.
16dJJ	.	.
=139	=139	=139
4G)	(16d#LL	<
.	16e	.
.	16f#	.
.	16gJJ	.
8r	16a#LL	.
.	16b	.
8GG 8G	16g	.
.	16eJJ	[[
!!LO:LB:g=z
=140	=140	=140
[2AA (>2F#	2dn	>
=141	=141	=141
8AA] 8E)	8c#)	]]
8r	8r	.
4r	8r	.
.	(32ALLL	f
.	32c#	.
.	32e	.
.	32aJJJ	.
=142	=142	=142
8AA` 8C#` 8E` 8G`	8e`)	.
8r	(32eLLL<	.
.	32g	.
.	32cc#	.
.	32eeJJJ	.
8AA` 8C#` 8E` 8G`	8cc#`)	.
8r	(32gLLL	.
.	32cc#	.
.	32ee	.
.	32ggJJJ	.
=143	=143	=143
8AA` 8C#` 8E` 8G`	8ee`)	.
8r	8r	.
4r	8r	.
.	(32gLLL	mf
.	32e	.
.	32c#	.
.	32AJJJ	.
=144	=144	=144
(16AALL	2G	.
16E	.	.
16D	.	.
16EJJ	.	.
16C#LL	.	.
16E	.	.
16AA	.	.
16C#JJ	.	.
=145	=145	=145
4D/)	16F#LL)	.
.	(16d	.
.	16c#	.
.	16dJJ	.
4r	16eLL	.
.	16d	.
.	16c#	.
.	16dJJ)	.
!!LO:LB:g=z
=146	=146	=146
(16DLL	(2cn	.
16A	.	.
16G	.	.
16AJJ	.	.
16F#LL	.	.
16A	.	.
16D	.	.
16F#JJ	.	.
=147	=147	=147
4G)	16BLL)	.
.	(16e	.
.	16d#	.
.	16eJJ	.
4r	16f#LL	.
.	16e	.
.	16d#	.
.	16eJJ	.
=148	=148	=148
(16ELL	2dn	.
16B	.	.
16A	.	.
16BJJ	.	.
16G#LL	.	.
16B	.	.
16E	.	.
16G#JJ	.	.
=149	=149	=149
4A)	16c#XLL)	.
.	(16a	.
.	16g#	.
.	16aJJ	.
4r	16bLL	.
.	16a	.
.	16g#	.
.	16aJJ	.
*clefG2	*	*
=150	=150	=150
(16BLL	8g#L	.
16fn	.	.
16B	8ddJ)	.
16fJJ	.	.
16BLL	8r	.
16f	.	.
16B	(<8g#	.
16fJJ	.	.
=151	=151	=151
16c#LL	8a`L)	.
16e	.	.
16c#	(16aL	.
16eJJ	16eeJJ	.
16c#LL	8a`L)	.
16e	.	.
16c#	8a`J	.
16eJJ	.	.
!!LO:LB:g=z
=152	=152	=152
(16BLL)	(8g#L	.
16fn	.	.
16B	8ddJ)	.
16fJJ	.	.
16BLL	8r	.
16f	.	.
16B	(<8g#	.
16fJJ	.	.
=153	=153	=153
16c#LL	8a`L)	.
16e	.	.
16c#	(16aL	.
16eJJ	16eeJJ	.
16c#LL	8a`L)	.
16e	.	.
16c#	8gn`J	.
16eJJ	.	.
=154	=154	=154
(16dLL)	8f#X`L	.
16f#	.	.
16d	8aa`J	.
16f#JJ	.	.
16dLL	8r	.
16f#	.	.
16d	(8dd	.
16f#JJ	.	.
=155	=155	=155
16eLL	8cc#`L)	<
16g	.	.
16e	(16cc#L	.
16gJJ	16aaJJ	.
16eLL	8cc#`L)	.
16g	.	.
16e	8cc#`J	.
16gJJ	.	.
=156	=156	=156
(16f#LL)	8dd`L	.
16a	.	.
16f#	(16ddL	.
16aJJ	16aaJJ	.
16f#LL	8dd`L)	.
16a	.	.
16f#	8dd`J	.
16aJJ	.	.
=157	=157	=157
16c#LL	8ee`L	.
16a	.	.
16c#	(16eeL	.
16aJJ	16aaJJ	.
16c#LL	8ee`L)	.
16a	.	.
16c#	8gg`J	.
16aJJ	.	.
!!LO:LB:g=z
=158	=158	=158
4d)	>16ff#LL	f
.	16gg	.
.	16aa	.
.	16ff#JJ	.
4r	16eeLL	.
.	16dd	.
.	16cc#	.
.	16bJJ	.
=159	=159	=159
4c# 4e	16aLL	.
.	16g#	.
.	16a	.
.	16bJJ	.
4r	16aLL	.
.	16gn	.
.	16f#	.
.	16eJJ	.
*clefF4	*	*
=160	=160	=160
4D 4d	16f#LL	.
.	16g	.
.	16a	.
.	16f#JJ	.
4r	16eLL	.
.	16d	.
.	16c#	.
.	16BJJ	.
=161	=161	=161
16ALL	2r	.
16G#	.	.
16A	.	.
16BJJ	.	.
16ALL	.	.
16Gn	.	.
16F#	.	.
16EJJ	.	.
=162	=162	=162
4D	(16ff#LL	.
.	16gg	.
.	16aa	.
.	16ff#JJ	.
4r	16eeLL	.
.	16dd	.
.	16cc#	.
.	16ddJJ	.
*clefG2	*	*
=163	=163	=163
4g	16bbLL	.
.	16ccc#	.
.	16ddd	.
.	16bbJJ	.
4r	16aaLL	.
.	16gg	.
.	16ff#	.
.	16eeJJ	.
!!LO:LB:g=z
=164	=164	=164
4G	16dd#LL	.
.	16ee	.
.	16ff#	.
.	16eeJJ)	.
4r	(16ggLL	.
.	16ff#)	.
.	(16aa	.
.	16ggJJ)	.
=165	=165	=165
2r	8bb'	.
.	8r	.
.	(16aaLL	.
.	16gg	.
.	16ff#	.
.	16eeJJ	.
*clefF4	*	*
=166	=166	=166
*^	*	*
(4.d	8r	4dd	.
.	(8F#L	.	.
.	8G	4eeT	.
8c#	8AJ	.	.
.	.	16qddLL	.
.	.	16qeeJJ	.
=167	=167	=167	=167
8d)	8d)	(16ff#LL)	.
.	.	16gg	.
8r	8ryy	16aa	.
.	.	16ff#JJ	.
*clefG2	*	*	*
8f#	4ryy	16eeLL	.
.	.	16dd	.
8r	.	16cc#	.
.	.	16ddJJ	.
*v	*v	*	*
=168	=168	=168
(16gLL	16bbLL	.
16a	16ccc#	.
16b	16ddd	.
16aJJ	16ccc#JJ	.
16gLL	16bbLL	.
16f#	16aa	.
16e	16gg	.
16dJJ	16ff#JJ	.
=169	=169	=169
8c#)	(16eeLL)	.
.	16ff#	.
8r	16gg	.
.	16eeJJ	.
8e	16ddLL	.
.	16cc#	.
8r	16b	.
.	16cc#JJ	.
!!LO:LB:g=z
=170	=170	=170
(16f#LL	16aaLL	.
16g	16bb	.
16a	16ccc#	.
16gJJ	16bbJJ	.
16f#LL	16aaLL	.
16e	16gg	.
16d	16ff#	.
16c#JJ	16eeJJ	.
=171	=171	=171
8B)	(16ddLL)	.
.	16ee	.
8r	16ff#	.
.	16ddJJ	.
8d	16cc#LL	.
.	16b	.
8r	16a#	.
.	16bJJ	.
=172	=172	=172
(16eLL	16ggLL	.
16f#	16aa	.
16g	16bb	.
16f#JJ	16aaJJ	.
16eLL	16ggLL	.
16d	16ff#	.
16c#	16ee	.
16BJJ	16ddJJ	.
=173	=173	=173
8A)	16cc#LL	.
.	16dd	.
8r	16ee	.
.	16ddJJ	.
8c#	16cc#LL	.
.	16b	.
8r	16a	.
.	16gJJ	.
=174	=174	=174
4d	(16f#LL)	.
.	16g	.
.	16a	.
.	16f#JJ	.
4r	16eLL	.
.	16d	.
.	16c#	.
.	16dJJ	.
*clefF4	*	*
=175	=175	=175
4G	16bLL	.
.	16cc#	.
.	16dd	.
.	16bJJ	.
4r	16aLL	.
.	16g	.
.	16f#	.
.	16eJJ	.
!!LO:LB:g=z
=176	=176	=176
4GG	16d#LL	.
.	16e	.
.	16f#	.
.	16eJJ)	.
4r	(16gLL	.
.	16f#)	.
.	(16a	.
.	16gJJ)	.
=177	=177	=177
2r	8b'	.
.	8r	.
.	(16ggLL	p
.	16ff#)	.
.	(16aa	.
.	16ggJJ)	.
=178	=178	=178
2r;	8bb'	.
.	8r;	.
*	*clefF4	*clefF4
*MM60	*MM60	*MM60
!	!LO:TX:a:i:t=adagio	!
.	(16GLL	pp
.	16F#	.
.	16A	.
.	16GJJ	.
=179	=179	=179
4r	8B)	.
.	8r	.
8r;	8r;	.
*	*clefG2	*clefG2
*MM120	*MM120	*MM120
!	!LO:TX:a:i:t=allegro	!
.	(>d#8q	.
8r	8dd#)	f
=180	=180	=180
.	(>e8q	.
2r	8eeL)	.
.	(>f#8q	.
.	8ff#J)	.
.	(>g8q	.
.	8ggL)	.
.	(>a#8q	.
.	8aa#J)	.
=181	=181	=181
.	(>b8q	.
2r	8bbL)	.
.	(>cc#8q	.
.	8ccc#J)	.
.	(>dd8q	.
.	8dddL)	.
.	(>g#8q	.
.	8gg#J)	.
*clefG2	*	*
!!LO:LB:g=z
=182	=182	=182
.	(>an8q	.
8A 8d 8f#L	(4.aa)	.
8A 8d 8f#	.	.
8A 8d 8f#	.	.
8A 8d 8f#J	32ggnLLL	.
.	32ff#	.
.	32ee	.
.	32ddJJJ	.
=183	=183	=183
8A 8c# 8gL	2eeTT	.
8A 8c# 8g	.	.
8A 8c# 8g	.	.
8A 8c# 8gJ	.	.
.	(16qddLL	.
.	16qeeJJ	.
*clefF4	*	*
=184	=184	=184
(16DLL	4dd))	.
16d	.	.
16c#	.	.
16dJJ	.	.
16F#LL	8r	.
16d	.	.
16c#	8a	.
16dJJ	.	.
=185	=185	=185
16GLL	(8bTL	.
16d	.	.
16F#	8aJ)	.
16dJJ	.	.
16GLL	(8bTL	.
16d	.	.
16F#	8aJ)	.
16dJJ	.	.
=186	=186	=186
4E 4c#)	4a 4cc# 4ee 4gg	fz
8r	8r	.
8D 8d	8ff#	.
=187	=187	=187
8G 8B	(8eeSSsL	.
8r	8ggJ)	.
8AA 8A	(8aSSsL	.
8r	8gn 8cc#J	.
!!LO:LB:g=z
=188	=188	=188
(16DLL	4f#) 4dd	.
16d	.	.
16c#	.	.
16dJJ	.	.
16F#LL	8r	.
16d	.	.
16c#	8a	.
16dJJ	.	.
=189	=189	=189
16GLL	(8bTL	.
16d	.	.
16F#	8aJ)	.
16dJJ	.	.
16GLL	(8bTL	.
16d	.	.
16F#	8aJ)	.
16dJJ	.	.
=190	=190	=190
4E 4c#)	4a 4cc# 4ee 4gg	fz
8r	8r	.
8D 8d	8ff#	.
=191	=191	=191
8G 8B	(8eeSSsL	.
8r	8ggJ)	.
8A 8c#	(8aSSsL	.
8r	8gn 8cc#J	.
=192	=192	=192
8D 8d	8f#) 8dd	.
8r	8r	.
8AA 8G	16r	p
.	(16ALL	.
8r	16c#	.
.	16aJJ)	.
=193	=193	=193
8AA 8F#	16r	.
.	(16ALL	.
8r	16d	.
.	16aJJ)	.
8AA 8E	16r	.
*	*clefF4	*clefF4
.	(16ELL	.
8r	16G	.
.	16c#JJ	.
=194	=194	=194
4DD 4D	4F# 4d)	.
8r	8r	.
==	==	==
*-	*-	*-
!!!RDF**kern: > = above
!!!RDF**kern: < = below
!!!RDF**dynam: > = dimin.
!!!RDF**kern: N = linked
!!!ONB: linked (cross-staff slurs not encoded)
!!!PPR: Universal Edition 1-4
!!!PTL: Haydn Piano Sonatas, Vol. 2, No. 11
!!!YOY: 1901
!!!ONB: Stich und Druck von Jos. Eberle & Co. Wien VII. Seidengasse 3-9
!!!ONM-ue: II:11.1
!!!YEC: 2021 Craig Stuart Sapp
!!!YEM: Licence: (CC BY-NC-SA 4.0) https://creativecommons.org/licenses/by-nc-sa/4.0
!!!YER: 2021
!!!ENC: Craig Stuart Sapp
!!!END: 2009/08/27
!!!EED: Craig Stuart Sapp
!!!EEV: 2021/01/02
!!!YEC: 2021 Craig Stuart Sapp
!!!URL: https://github.com/craigsapp/haydn-keyboard-sonatas
!!!URL-vhv: https://verovio.humdrum.org?file=haydn/sonatas/sonata34-1.krn
!!!URL-pdf: https://github.com/craigsapp/haydn-keyboard-sonatas/raw/master/reference-edition/sonata34-1.pdf
!!!title: @{OTL}, mvmt. @{OMV} (@{SCT}), UE @{ONM-ue}
